public/mascots/nj/hawk-128x128.svg

<svg xmlns="http://www.w3.org/2000/svg" width="128" height="128" viewBox="0 0 128 128"><path fill="none" stroke="#00f" stroke-linecap="round" stroke-linejoin="round" stroke-width="2" d="M40 104q-8-24 8-40-8-8 0-24t32-16 32 16L96 56q16 16 0 40-16 16-56 8"/><path fill="none" stroke="#00f" stroke-linecap="round" stroke-width="2" d="M48 64q16-8 40 0"/><path fill="none" stroke="#00f" stroke-linecap="round" stroke-width="1.5" d="m44 72 12-4M42 80l12-4M46 56l12 4"/><path fill="none" stroke="#00f" stroke-linecap="round" d="m52 68 8-2M50 76l12-4"/><path fill="none" stroke="#00f" stroke-linecap="round" stroke-width="2" d="M48 40q8-16 32-16 16 0 24 12"/><path fill="none" stroke="#00f" stroke-linecap="round" stroke-width="1.5" d="M56 28q16-8 32 0"/><path fill="none" stroke="#00f" stroke-linecap="round" d="M60 26q12-4 24 0"/><path fill="none" stroke="#00f" stroke-linecap="round" stroke-linejoin="round" stroke-width="2" d="m104 36 12 4-12 8q4-4 2-8 2-4-2-4"/><path fill="none" stroke="#00f" stroke-linecap="round" d="m108 38 6 2-6 2"/><path fill="none" stroke="#00f" stroke-width=".8" d="M106 40h4"/><ellipse cx="80" cy="36" fill="none" stroke="#00f" stroke-width="2" rx="8" ry="6"/><circle cx="82" cy="36" r="3" fill="#00f"/><circle cx="83" cy="35" r="1" fill="#fff"/><path fill="none" stroke="#00f" stroke-linecap="round" stroke-width="3" d="m68 28 16 6"/><path fill="none" stroke="#00f" stroke-linecap="round" stroke-width="1.5" d="m72 30 8 2.5"/><path fill="none" stroke="#00f" stroke-linecap="round" d="M52 42q8 6 4 14"/><path fill="none" stroke="#00f" stroke-linecap="round" stroke-width="2" d="m32 88-8 16m16-8-6 12"/><path fill="none" stroke="#00f" stroke-linecap="round" stroke-width="1.5" d="m36 92-6 14M56 72q8 16 0 32"/><path fill="none" stroke="#00f" stroke-linecap="round" stroke-width="1.2" d="M64 68q8 12 4 32"/><path fill="none" stroke="#00f" stroke-linecap="round" d="M72 66q6 10 4 30M52 84q8 6 4 16"/><path fill="none" stroke="#00f" stroke-linecap="round" stroke-width="2" d="m52 100-4 12m20-8 4 12"/><path fill="none" stroke="#00f" stroke-linecap="round" d="m46 108 4 4m20-2 4 4"/></svg>

<svg xmlns="http://www.w3.org/2000/svg" width="128" height="128" viewBox="0 0 128 128">
  <!-- NJ Style Hawk - 128x128 -->
  <!-- Sleek outline style, precision lines, #0000FF stroke -->
  
  <!-- Main body outline - streamlined hawk silhouette -->
  <path d="M40 104 Q32 80 48 64 Q40 56 48 40 Q56 24 80 24 Q104 24 112 40 L96 56 Q112 72 96 96 Q80 112 40 104" 
        stroke="#0000FF" stroke-width="2" fill="none" stroke-linecap="round" stroke-linejoin="round"/>
  
  <!-- Wing structure - sharp precision lines -->
  <path d="M48 64 Q64 56 88 64" stroke="#0000FF" stroke-width="2" fill="none" stroke-linecap="round"/>
  <path d="M44 72 L56 68" stroke="#0000FF" stroke-width="1.5" fill="none" stroke-linecap="round"/>
  <path d="M42 80 L54 76" stroke="#0000FF" stroke-width="1.5" fill="none" stroke-linecap="round"/>
  <path d="M46 56 L58 60" stroke="#0000FF" stroke-width="1.5" fill="none" stroke-linecap="round"/>
  
  <!-- Secondary wing lines -->
  <path d="M52 68 L60 66" stroke="#0000FF" stroke-width="1" fill="none" stroke-linecap="round"/>
  <path d="M50 76 L62 72" stroke="#0000FF" stroke-width="1" fill="none" stroke-linecap="round"/>
  
  <!-- Head with alert posture -->
  <path d="M48 40 Q56 24 80 24 Q96 24 104 36" stroke="#0000FF" stroke-width="2" fill="none" stroke-linecap="round"/>
  
  <!-- Crown feather details -->
  <path d="M56 28 Q72 20 88 28" stroke="#0000FF" stroke-width="1.5" fill="none" stroke-linecap="round"/>
  <path d="M60 26 Q72 22 84 26" stroke="#0000FF" stroke-width="1" fill="none" stroke-linecap="round"/>
  
  <!-- Sharp hooked beak -->
  <path d="M104 36 L116 40 L104 48 Q108 44 106 40 Q108 36 104 36" stroke="#0000FF" stroke-width="2" fill="none" stroke-linecap="round" stroke-linejoin="round"/>
  
  <!-- Beak detail lines -->
  <path d="M108 38 L114 40 L108 42" stroke="#0000FF" stroke-width="1" fill="none" stroke-linecap="round"/>
  <path d="M106 40 L110 40" stroke="#0000FF" stroke-width="0.8" fill="none"/>
  
  <!-- Alert eye - intense focus -->
  <ellipse cx="80" cy="36" rx="8" ry="6" stroke="#0000FF" stroke-width="2" fill="none"/>
  <circle cx="82" cy="36" r="3" fill="#0000FF"/>
  
  <!-- Eye highlight -->
  <circle cx="83" cy="35" r="1" fill="#FFFFFF"/>
  
  <!-- Sharp angled brow -->
  <path d="M68 28 L84 34" stroke="#0000FF" stroke-width="3" fill="none" stroke-linecap="round"/>
  <path d="M72 30 L80 32.5" stroke="#0000FF" stroke-width="1.5" fill="none" stroke-linecap="round"/>
  
  <!-- Neck contour -->
  <path d="M52 42 Q60 48 56 56" stroke="#0000FF" stroke-width="1" fill="none" stroke-linecap="round"/>
  
  <!-- Tail feathers - angular precision -->
  <path d="M32 88 L24 104 M40 96 L34 108" stroke="#0000FF" stroke-width="2" fill="none" stroke-linecap="round"/>
  <path d="M36 92 L30 106" stroke="#0000FF" stroke-width="1.5" fill="none" stroke-linecap="round"/>
  
  <!-- Body contour lines -->
  <path d="M56 72 Q64 88 56 104" stroke="#0000FF" stroke-width="1.5" fill="none" stroke-linecap="round"/>
  <path d="M64 68 Q72 80 68 100" stroke="#0000FF" stroke-width="1.2" fill="none" stroke-linecap="round"/>
  <path d="M72 66 Q78 76 76 96" stroke="#0000FF" stroke-width="1" fill="none" stroke-linecap="round"/>
  
  <!-- Chest feather lines -->
  <path d="M52 84 Q60 90 56 100" stroke="#0000FF" stroke-width="1" fill="none" stroke-linecap="round"/>
  
  <!-- Leg/talon outline -->
  <path d="M52 100 L48 112 M68 104 L72 116" stroke="#0000FF" stroke-width="2" fill="none" stroke-linecap="round"/>
  <path d="M46 108 L50 112 M70 110 L74 114" stroke="#0000FF" stroke-width="1" fill="none" stroke-linecap="round"/>
</svg>
